X:1560
T:Beauty Spot, The
M:C|
L:1/8
R:reel
D:Maeve Donnelly: Maeve Donnelly
Z:Devin McCabe
K:BMin
F3E F2BA|F2EC A,B,CE|~F3E ~F2BA|FAEA, CB,CE:|
!cBAB c~B3|ceAB cafe|cBAB c~B3|EFAB c~B3|
!cBAB c~B3|ceAB cafe|Bc2A BcBA|EFAB cABA||
